src/assets/Imgs/lightMenu/home.svg

<svg fill="none" height="24" viewBox="0 0 24 24" width="24" xmlns="http://www.w3.org/2000/svg"><path d="m7.5 16.4c3.4887 1.48 5.43 1.4532 8.8 0m5.5-6.43464v8.59814c0 2.4502-1.9699 4.4365-4.4 4.4365h-11c-2.43005 0-4.4-1.9863-4.4-4.4365v-8.59814c0-1.33205.59361-2.59361 1.61685-3.43618l5.49999-4.5289c1.61966-1.333706 3.94666-1.333708 5.56636 0l5.4999 4.5289c1.0233.84257 1.6169 2.10413 1.6169 3.43618z" stroke="#1a1323" stroke-linecap="round" stroke-linejoin="round" stroke-width="1.5"/></svg>

<svg width="24" height="24" viewBox="0 0 24 24" fill="none" xmlns="http://www.w3.org/2000/svg">
<g id="home">
<path id="Vector" d="M7.5 16.4C10.9887 17.88 12.93 17.8532 16.3 16.4M21.8 9.96536V18.5635C21.8 21.0137 19.8301 23 17.4 23H6.4C3.96995 23 2 21.0137 2 18.5635V9.96536C2 8.63331 2.59361 7.37175 3.61685 6.52918L9.11684 2.00028C10.7365 0.666574 13.0635 0.666572 14.6832 2.00028L20.1831 6.52918C21.2064 7.37175 21.8 8.63331 21.8 9.96536Z" stroke="#1A1323" stroke-width="1.5" stroke-linecap="round" stroke-linejoin="round"/>
</g>
</svg>
